view/frontend/web/svg/flags/kr.svg

<svg width="24" height="24" viewbox="0 0 20 15" viewBox="0 0 20 15" fill="none" xmlns="http://www.w3.org/2000/svg">
<g clip-path="url(#clip0_270_60874)">
<rect width="20" height="15" fill="white"/>
<path fill-rule="evenodd" clip-rule="evenodd" d="M0 0V15H20V0H0Z" fill="#F7FCFF"/>
<mask id="mask0_270_60874" style="mask-type:luminance" maskUnits="userSpaceOnUse" x="0" y="0" width="20" height="15">
<path fill-rule="evenodd" clip-rule="evenodd" d="M0 0V15H20V0H0Z" fill="white"/>
</mask>
<g mask="url(#mask0_270_60874)">
<path fill-rule="evenodd" clip-rule="evenodd" d="M9.99998 11.3872C12.0017 11.3872 13.6244 9.6639 13.6244 7.53811C13.6244 5.41232 12.0017 3.68903 9.99998 3.68903C7.99828 3.68903 6.37558 5.41232 6.37558 7.53811C6.37558 9.6639 7.99828 11.3872 9.99998 11.3872Z" fill="#3D58DB"/>
<mask id="mask1_270_60874" style="mask-type:luminance" maskUnits="userSpaceOnUse" x="6" y="3" width="8" height="9">
<path fill-rule="evenodd" clip-rule="evenodd" d="M9.99998 11.3872C12.0017 11.3872 13.6244 9.6639 13.6244 7.53811C13.6244 5.41232 12.0017 3.68903 9.99998 3.68903C7.99828 3.68903 6.37558 5.41232 6.37558 7.53811C6.37558 9.6639 7.99828 11.3872 9.99998 11.3872Z" fill="white"/>
</mask>
<g mask="url(#mask1_270_60874)">
<path fill-rule="evenodd" clip-rule="evenodd" d="M13.7512 7.83296C13.7512 7.83296 13.5477 6.01799 12.0411 5.91947C10.5344 5.82094 10.1281 7.25046 10.0412 7.62919C9.95426 8.00792 9.73421 9.01824 8.14786 9.01824C6.56152 9.01824 6.41843 6.44922 6.41843 6.44922V3.41994H13.7512V7.83296Z" fill="#E31D1C"/>
</g>
<path fill-rule="evenodd" clip-rule="evenodd" d="M4.56209 1.28261L5.13394 1.79981L2.48378 4.89475L1.91193 4.37755L4.56209 1.28261ZM5.50521 2.11958L6.07706 2.63679L3.52189 5.68689L2.95004 5.16969L5.50521 2.11958ZM7.01586 3.48407L6.44401 2.96687L3.88174 6.04012L4.45359 6.55732L7.01586 3.48407Z" fill="#272727"/>
<path fill-rule="evenodd" clip-rule="evenodd" d="M15.8523 1.06574L15.2804 1.58101L16.2725 2.74528L16.8445 2.23001L15.8523 1.06574ZM17.6158 3.20739L17.0439 3.72266L18.036 4.88693L18.608 4.37166L17.6158 3.20739ZM13.3925 3.258L13.9645 2.74273L14.9566 3.90701L14.3846 4.42227L13.3925 3.258ZM15.728 4.88438L15.156 5.39965L16.1481 6.56392L16.7201 6.04866L15.728 4.88438ZM14.3722 2.3945L14.9442 1.87923L17.7058 5.24227L17.1338 5.75754L14.3722 2.3945Z" fill="#272727"/>
<path fill-rule="evenodd" clip-rule="evenodd" d="M16.2843 8.90195L15.7075 8.38467L14.707 9.55348L15.2838 10.0708L16.2843 8.90195ZM14.6022 10.9588L14.0255 10.4416L13.025 11.6104L13.6018 12.1276L14.6022 10.9588ZM17.529 10.0205L18.1058 10.5378L17.1053 11.7066L16.5285 11.1893L17.529 10.0205ZM16.506 12.6424L15.9292 12.1251L14.9287 13.2939L15.5055 13.8112L16.506 12.6424ZM14.9791 11.2363L15.5558 11.7536L14.5115 13.0016L13.9347 12.4844L14.9791 11.2363ZM17.2692 9.6739L16.6925 9.15662L15.6481 10.4047L16.2249 10.922L17.2692 9.6739Z" fill="#272727"/>
<path fill-rule="evenodd" clip-rule="evenodd" d="M4.00409 9.30618L4.5761 8.79034L7.12897 11.7156L6.55696 12.2314L4.00409 9.30618ZM4.59959 11.8647L5.17159 11.3489L6.24991 12.5336L5.67791 13.0494L4.59959 11.8647ZM2.69338 10.4317L2.12138 10.9476L4.6875 13.9122L5.25951 13.3964L2.69338 10.4317ZM3.10037 10.0951L3.67237 9.57929L4.60717 10.6755L4.03516 11.1913L3.10037 10.0951Z" fill="#272727"/>
</g>
</g>
<defs>
<clipPath id="clip0_270_60874">
<rect width="20" height="15" fill="white"/>
</clipPath>
</defs>
</svg>

<svg width="24" height="24" viewbox="0 0 20 15" fill="none" xmlns="http://www.w3.org/2000/svg">
  <g mask="url(#KR_-_Korea_(South)__a)">
    <path fill-rule="evenodd" clip-rule="evenodd" d="M0 0v15h20V0H0z" fill="#F7FCFF"/>
    <g mask="url(#KR_-_Korea_(South)__b)">
      <path fill-rule="evenodd" clip-rule="evenodd" d="M10 11.387c2.002 0 3.624-1.723 3.624-3.849 0-2.126-1.622-3.849-3.624-3.849s-3.624 1.723-3.624 3.85c0 2.125 1.622 3.848 3.624 3.848z" fill="#3D58DB"/>
      <g mask="url(#KR_-_Korea_(South)__c)">
        <path fill-rule="evenodd" clip-rule="evenodd" d="M13.751 7.833s-.203-1.815-1.71-1.914c-1.507-.098-1.913 1.331-2 1.71-.087.379-.307 1.39-1.893 1.39s-1.73-2.57-1.73-2.57V3.42h7.333v4.414z" fill="#E31D1C"/>
      </g>
      <path fill-rule="evenodd" clip-rule="evenodd" d="M4.562 1.283l.572.517-2.65 3.095-.572-.517 2.65-3.095zm.943.837l.572.517-2.555 3.05-.572-.517 2.555-3.05zm1.51 1.364l-.571-.517L3.882 6.04l.572.517 2.562-3.073zm8.837-2.418l-.572.515.993 1.164.572-.515-.993-1.164zm1.764 2.141l-.572.516.992 1.164.572-.515-.992-1.165zm-4.223.051l.571-.515.993 1.164-.572.515-.992-1.164zm2.335 1.626l-.572.516.992 1.164.572-.515-.992-1.165zm-1.356-2.49l.572-.515 2.762 3.363-.572.516-2.762-3.364zm1.912 6.508l-.576-.517-1.001 1.168.577.518 1-1.17zm-1.682 2.057l-.577-.517-1 1.168.577.518 1-1.17zm2.927-.938l.577.517-1 1.169-.578-.518 1.001-1.168zm-1.023 2.621l-.577-.517-1 1.169.576.517 1.001-1.169zm-1.527-1.406l.577.518-1.044 1.248-.577-.518 1.044-1.248zm2.29-1.562l-.576-.517-1.045 1.248.577.517 1.044-1.248zM4.004 9.306l.572-.516 2.553 2.926-.572.515-2.553-2.925zm.596 2.559l.572-.516 1.078 1.185-.572.515L4.6 11.865zm-1.907-1.433l-.572.516 2.567 2.964.572-.516-2.567-2.964zm.407-.337l.572-.516.935 1.096-.572.516-.935-1.096z" fill="#272727"/>
    </g>
  </g>
</svg>
